resources/haticons/SVG/trello.svg

<!-- Generated by IcoMoon.io -->
<svg version="1.1" xmlns="http://www.w3.org/2000/svg" width="24" height="24" viewBox="0 0 24 24">
<title>trello</title>
<path d="M21.75 0h-19.5c-1.237 0-2.25 1.013-2.25 2.25v19.5c0 1.237 1.013 2.25 2.25 2.25h19.5c1.237 0 2.25-1.013 2.25-2.25v-19.5c0-1.237-1.013-2.25-2.25-2.25zM10.5 18c0 0.825-0.675 1.5-1.5 1.5h-3c-0.825 0-1.5-0.675-1.5-1.5v-12c0-0.825 0.675-1.5 1.5-1.5h3c0.825 0 1.5 0.675 1.5 1.5v12zM19.5 13.5c0 0.825-0.675 1.5-1.5 1.5h-3c-0.825 0-1.5-0.675-1.5-1.5v-7.5c0-0.825 0.675-1.5 1.5-1.5h3c0.825 0 1.5 0.675 1.5 1.5v7.5z"></path>
</svg>

<svg xmlns="http://www.w3.org/2000/svg" width="24" height="24"><path d="M21.75 0H2.25A2.257 2.257 0 0 0 0 2.25v19.5A2.257 2.257 0 0 0 2.25 24h19.5A2.257 2.257 0 0 0 24 21.75V2.25A2.257 2.257 0 0 0 21.75 0zM10.5 18c0 .825-.675 1.5-1.5 1.5H6c-.825 0-1.5-.675-1.5-1.5V6c0-.825.675-1.5 1.5-1.5h3c.825 0 1.5.675 1.5 1.5v12zm9-4.5c0 .825-.675 1.5-1.5 1.5h-3c-.825 0-1.5-.675-1.5-1.5V6c0-.825.675-1.5 1.5-1.5h3c.825 0 1.5.675 1.5 1.5v7.5z"/></svg>
